assets/resources/Magic_Lantern_Video.cube
TITLE "Generate by Resolve"
LUT_3D_SIZE 33
0 0 0
0 0 0
0 0 0
0 0 0
0.0304875 0 0
0.15903 0 0
0.291951 0 0
0.423529 0 0
0.548989 0 0
0.663966 0 0
0.764431 0 0
0.848005 0 0
0.916152 0 0
0.976715 0 0
1 0 0
1 0 0
1 0 0
1 0 0
1 0 0
1 0 0
1 0 0
1 0 0
1 0 0
1 0 0
1 0 0
1 0 0
1 0 0
1 0 0
1 0 0
1 0 0
1 0 0
1 0 0
1 0.00270085 0
0 0 0
0 0 0
0 0 0
0 0 0
0.0564889 0 0
0.183932 0 0
0.314366 0 0
0.442161 0 0
0.567208 0 0
0.682612 0 0
0.787213 0 0
0.872618 0 0
0.942245 0 0
1 0 0
1 0 0
1 0 0
1 0 0
1 0 0
1 0 0
1 0 0
1 0 0
1 0 0
1 0 0
1 0 0
1 0 0
1 0 0
1 0.0127871 0
1 0.0310826 0
1 0.0494087 0
1 0.0673991 0
1 0.0848249 0
1 0.101823 0
1 0.118044 0
0 0 0
0 0 0
0 0 0
0 0 0
0.0788586 0 0
0.205905 0 0
0.337987 0 0
0.469398 0 0
0.596277 0 0
0.713588 0 0
0.82031 0 0
0.907744 0 0
0.979217 0 0
1 0 0
1 0 0
1 0 0
1 0 0
1 0 0
1 0 0
1 0.00262455 0
1 0.0213931 0
1 0.0400854 0
1 0.0587167 0
1 0.0770275 0
1 0.0951247 0
1 0.112688 0
1 0.12987 0
1 0.146502 0
1 0.162692 0
1 0.178042 0
1 0.192737 0
1 0.206394 0
1 0.219501 0
0 0 0
0 0 0
0 0 0
0 0 0
0.109483 0 0
0.239338 0 0
0.373846 0 0
0.507912 0 0
0.636835 0 0
0.757183 0 0
0.86746 0 0
0.960113 0 0
1 0 0
1 0.00645457 0
1 0.0284428 0
1 0.0476387 0
1 0.066331 0
1 0.0849622 0
1 0.103456 0
1 0.121645 0
1 0.139483 0
1 0.156863 0
1 0.173724 0
1 0.189929 0
1 0.205509 0
1 0.22034 0
1 0.23447 0
1 0.247822 0
1 0.260517 0
1 0.272587 0
1 0.284153 0
1 0.295064 0
1 0.305455 0
0 0.0373846 0
0 0.0350195 0
0 0.0345769 0
0.0278325 0.0357977 0
0.154711 0.0386816 0
0.290242 0.0412451 0
0.429572 0.0436408 0
0.567498 0.0471504 0
0.699748 0.0527504 0
0.822446 0.0609445 0
0.934752 0.0722362 0
1 0.0882429 0
1 0.107866 0
1 0.128893 0
1 0.149889 0
1 0.167712 0
1 0.18497 0
1 0.201892 0
1 0.218128 0
1 0.233829 0
1 0.248676 0
1 0.263005 0
1 0.276738 0
1 0.290105 0
1 0.302815 0
1 0.315114 0
1 0.32668 0
1 0.337835 0
1 0.348226 0
1 0.358206 0
1 0.367498 0
1 0.37641 0
1 0.384649 0
0 0.147433 0
0 0.146715 0
0 0.147906 0
0.0805066 0.151003 0
0.211002 0.156573 0
0.349004 0.160967 0
0.490486 0.16495 0
0.630396 0.16994 0
0.764065 0.176577 0
0.887495 0.185321 0
0.99968 0.196506 0
1 0.21088 0
1 0.228214 0
1 0.245487 0
1 0.262181 0
1 0.277089 0
1 0.29192 0
1 0.305959 0
1 0.319936 0
1 0.333089 0
1 0.345953 0
1 0.35819 0
1 0.36994 0
1 0.381079 0
1 0.391714 0
1 0.40177 0
1 0.411337 0
1 0.420401 0
1 0.429023 0
1 0.437217 0
1 0.444617 0
1 0.451225 0
1 0.456596 0
0 0.26659 0
0 0.267216 0
0.0235752 0.269657 0
0.140826 0.274205 0
0.273106 0.281086 0
0.412284 0.286351 0
0.554116 0.290593 0
0.692775 0.294652 0
0.823728 0.29929 0
0.942946 0.304921 0
1 0.31162 0
1 0.321477 0
1 0.334554 0
1 0.348638 0
1 0.362692 0
1 0.375952 0
1 0.388785 0
1 0.401083 0
1 0.41297 0
1 0.424262 0
1 0.435035 0
1 0.445548 0
1 0.455589 0
1 0.465232 0
1 0.474556 0
1 0.483314 0
1 0.491676 0
1 0.498985 0
1 0.505577 0
1 0.510613 0
1 0.5149 0
1 0.518044 0
1 0.520638 0
0 0.389914 0
0 0.391287 0
0.0879835 0.394202 0
0.205005 0.398566 0
0.335485 0.404135 0
0.471458 0.407004 0
0.608392 0.40763 0
0.740948 0.407172 0
0.865721 0.407218 0
0.979889 0.40911 0
1 0.412772 0
1 0.42034 0
1 0.430838 0
1 0.442618 0
1 0.45481 0
1 0.46685 0
1 0.478325 0
1 0.489616 0
1 0.500313 0
1 0.510719 0
1 0.520562 0
1 0.530083 0
1 0.538918 0
1 0.547265 0
1 0.554452 0
1 0.5608 0
1 0.565698 0
1 0.569772 0
1 0.572824 0
1 0.575235 0
1 0.576928 0
1 0.578119 0
1 0.578775 0
0 0.505898 0
0.0319371 0.507073 0
0.146517 0.509483 0
0.261494 0.512352 0
0.385687 0.513252 0
0.51577 0.511772 0
0.64802 0.508919 0
0.776898 0.505745 0
0.898436 0.503395 0
1 0.502693 0
1 0.50428 0
1 0.510399 0
1 0.520272 0
1 0.531777 0
1 0.543832 0
1 0.554971 0
1 0.565469 0
1 0.575586 0
1 0.585229 0
1 0.594385 0
1 0.602579 0
1 0.609964 0
1 0.615854 0
1 0.620615 0
1 0.624384 0
1 0.627344 0
1 0.629526 0
1 0.631205 0
1 0.632212 0
1 0.632853 0
1 0.63299 0
1 0.632868 0
1 0.63238 0
0 0.607095 0.010132
0.0806592 0.607553 0
0.194034 0.609079 0
0.306767 0.610285 0
0.427512 0.608621 0
0.554284 0.604685 0
0.682872 0.59913 0
0.809277 0.59411 0
0.92929 0.590646 0
1 0.589487 0
1 0.591028 0
1 0.596857 0
1 0.606394 0
1 0.61735 0
1 0.628916 0
1 0.639109 0
1 0.64831 0
1 0.656382 0
1 0.663661 0
1 0.66923 0
1 0.674006 0
1 0.677531 0
1 0.680461 0
1 0.682475 0
1 0.684031 0
1 0.684871 0
1 0.68545 0
1 0.685405 0
1 0.685252 0
1 0.684657 0
1 0.683955 0
1 0.682979 0
1 0.681941 0
0.00881971 0.697795 0.058381
0.126177 0.697261 0.0329442
0.237751 0.697459 0.00984207
0.348074 0.696864 0
0.466682 0.693629 0
0.592325 0.688869 0
0.72079 0.683207 0
0.84712 0.678141 0
0.966598 0.674266 0
1 0.672892 0
1 0.673594 0
1 0.678981 0
1 0.687724 0
1 0.697704 0
1 0.707332 0
1 0.714839 0
1 0.720088 0
1 0.724453 0
1 0.727825 0
1 0.730434 0
1 0.732341 0
1 0.733669 0
1 0.734493 0
1 0.734859 0
1 0.734874 0
1 0.734569 0
1 0.734005 0
1 0.733227 0
1 0.732265 0
1 0.731197 0
1 0.730022 0
1 0.728817 0
1 0.727596 0
0.0633555 0.779767 0.112825
0.178851 0.777859 0.0856336
0.288624 0.776715 0.060853
0.398215 0.775601 0.0361181
0.516609 0.772198 0.0059968
0.641764 0.767071 0
0.769726 0.761028 0
0.895338 0.755444 0
1 0.75111 0
1 0.748898 0
1 0.74847 0
1 0.751553 0
1 0.756848 0
1 0.76286 0
1 0.768246 0
1 0.772168 0
1 0.774395 0
1 0.776196 0
1 0.77731 0
1 0.778058 0
1 0.778302 0
1 0.778271 0
1 0.777874 0
1 0.777295 0
1 0.776471 0
1 0.775525 0
1 0.774426 0
1 0.773297 0
1 0.772107 0
1 0.770932 0
1 0.769833 0
1 0.76878 0
1 0.76791 0
0.126909 0.856535 0.174929
0.239994 0.852827 0.145449
0.348196 0.850538 0.119188
0.457038 0.848844 0.0937362
0.574823 0.845014 0.0630655
0.699016 0.83917 0.027924
0.82594 0.832364 0
0.949248 0.825055 0
1 0.818387 0
1 0.812299 0
1 0.80798 0
1 0.806836 0
1 0.80882 0
1 0.811475 0
1 0.81442 0
1 0.815946 0
1 0.816495 0
1 0.816678 0
1 0.816571 0
1 0.816144 0
1 0.815518 0
1 0.814679 0
1 0.813733 0
1 0.812665 0
1 0.811551 0
1 0.810407 0
1 0.809293 0
1 0.80824 0
1 0.807294 0
1 0.806485 0
1 0.805875 0
1 0.805508 0
1 0.804532 0
0.187991 0.925933 0.234302
0.299138 0.92079 0.202991
0.4065 0.917876 0.175937
0.513985 0.915175 0.149203
0.630014 0.910033 0.116869
0.751812 0.902434 0.0794842
0.874296 0.892332 0.0380865
0.992157 0.880995 0
1 0.870222 0
1 0.86096 0
1 0.853651 0
1 0.850156 0
1 0.849912 0
1 0.850874 0
1 0.85211 0
1 0.852338 0
1 0.851759 0
1 0.851148 0
1 0.850263 0
1 0.849363 0
1 0.848264 0
1 0.847242 0
1 0.846098 0
1 0.845121 0
1 0.844083 0
1 0.84329 0
1 0.842512 0
1 0.8421 0
1 0.841718 0
1 0.840604 0
1 0.839719 0
1 0.838834 0
1 0.837949 0
0.239292 0.985946 0.284276
0.347234 0.978454 0.249958
0.450828 0.972732 0.219333
0.553643 0.966583 0.188205
0.664683 0.957748 0.151156
0.782238 0.94699 0.109773
0.901762 0.934707 0.0655833
1 0.922377 0.0219577
1 0.910643 0
1 0.900557 0
1 0.891493 0
1 0.886549 0
1 0.884932 0
1 0.884825 0
1 0.885115 0
1 0.884611 0
1 0.883604 0
1 0.882612 0
1 0.88159 0
1 0.880568 0
1 0.879591 0
1 0.878691 0
1 0.877943 0
1 0.877333 0
1 0.876997 0
1 0.876188 0
1 0.875349 0
1 0.87451 0
1 0.873655 0
1 0.872786 0
1 0.871931 0
1 0.871061 0
1 0.870176 0
0.275532 1 0.320119
0.379065 1 0.281636
0.478965 1 0.247547
0.578164 1 0.213001
0.686458 0.996811 0.173373
0.801282 0.984024 0.129396
0.918746 0.970214 0.0832685
1 0.956405 0.0377356
1 0.943542 0
1 0.932387 0
1 0.923262 0
1 0.917967 0
1 0.915923 0
1 0.915328 0
1 0.915282 0
1 0.914611 0
1 0.913603 0
1 0.912718 0
1 0.91194 0
1 0.911269 0
1 0.910796 0
1 0.910506 0
1 0.90959 0
1 0.908797 0
1 0.908003 0
1 0.907195 0
1 0.906371 0
1 0.905547 0
1 0.904723 0
1 0.903883 0
1 0.903044 0
1 0.90219 0
1 0.901335 0
0.29839 1 0.343359
0.399573 1 0.302663
0.497017 1 0.266239
0.594186 1 0.229801
0.700725 1 0.188495
0.814023 1 0.143099
0.930205 1 0.0957504
1 0.987213 0.0492256
1 0.973724 0.00588998
1 0.962066 0
1 0.952575 0
1 0.947066 0
1 0.9449 0
1 0.94435 0
1 0.944427 0
1 0.944045 0
1 0.943404 0
1 0.943084 0
1 0.94284 0
1 0.941833 0
1 0.94107 0
1 0.940307 0
1 0.939544 0
1 0.93875 0
1 0.937972 0
1 0.937163 0
1 0.93637 0
1 0.935546 0
1 0.934722 0
1 0.933898 0
1 0.933074 0
1 0.932235 0
1 0.93138 0
0.313771 1 0.359518
0.413504 1 0.317464
0.509514 1 0.279698
0.605585 1 0.242206
0.711055 1 0.199893
0.823621 1 0.153811
0.939147 1 0.105852
1 1 0.0589609
1 1 0.0153658
1 0.991089 0
1 0.981674 0
1 0.976333 0
1 0.974502 0
1 0.974365 0
1 0.975067 0
1 0.974624 0
1 0.973861 0
1 0.973159 0
1 0.972442 0
1 0.97171 0
1 0.970977 0
1 0.97023 0
1 0.969467 0
1 0.968688 0
1 0.96791 0
1 0.967117 0
1 0.966323 0
1 0.96553 0
1 0.964721 0
1 0.963897 0
1 0.963073 0
1 0.962249 0
1 0.96141 0
0.324529 1 0.371328
0.423346 1 0.328405
0.518669 1 0.289998
0.61416 1 0.251957
0.71931 1 0.209354
0.831662 1 0.163043
0.947204 1 0.115099
1 1 0.0683299
1 1 0.0250553
1 1 0
1 1 0
1 1 0
1 1 0
1 1 0
1 1 0
1 1 0
1 1 0
1 1 0
1 1 0
1 1 0
1 1 0
1 1 0
1 0.999435 0
1 0.998672 0
1 0.997909 0
1 0.997131 0
1 0.996353 0
1 0.99556 0
1 0.994751 0
1 0.993942 0
1 0.993133 0
1 0.992309 0
1 0.991485 0
0.332967 1 0.380957
0.431464 1 0.337743
0.52665 1 0.299184
0.622202 1 0.261204
0.72752 1 0.218753
0.840284 1 0.172854
0.956329 1 0.125383
1 1 0.0793774
1 1 0.0368048
1 1 0
1 1 0
1 1 0
1 1 0
1 1 0
1 1 0
1 1 0
1 1 0
1 1 0
1 1 0
1 1 0
1 1 0
1 1 0
1 1 0
1 1 0
1 1 0
1 1 0
1 1 0
1 1 0
1 1 0
1 1 0
1 1 0
1 1 0
1 1 0
0.341039 1 0.390265
0.439765 1 0.34725
0.535409 1 0.309117
0.631556 1 0.271702
0.737713 1 0.230045
0.850462 1 0.184115
0.966323 1 0.136477
1 1 0.0899367
1 1 0.0467231
1 1 0.00875868
1 1 0
1 1 0
1 1 0
1 1 0
1 1 0
1 1 0
1 1 0
1 1 0
1 1 0
1 1 0
1 1 0
1 1 0
1 1 0
1 1 0
1 1 0
1 1 0
1 1 0
1 1 0
1 1 0
1 1 0
1 1 0
1 1 0
1 1 0
0.35079 1 0.401129
0.450324 1 0.358877
0.545541 1 0.320348
0.641367 1 0.282628
0.746899 1 0.240391
0.859648 1 0.194476
0.975525 1 0.146838
1 1 0.100313
1 1 0.0571145
1 1 0.0191653
1 1 0
1 1 0
1 1 0
1 1 0
1 1 0
1 1 0
1 1 0
1 1 0
1 1 0
1 1 0
1 1 0
1 1 0
1 1 0
1 1 0
1 1 0
1 1 0
1 1 0
1 1 0
1 1 0
1 1 0
1 1 0
1 1 0
1 1 0
0.36025 1 0.411734
0.459113 1 0.368856
0.554696 1 0.330678
0.650538 1 0.292973
0.756085 1 0.250736
0.868864 1 0.204837
0.984756 1 0.157229
1 1 0.110704
1 1 0.0675364
1 1 0.0295872
1 1 0
1 1 0
1 1 0
1 1 0
1 1 0
1 1 0
1 1 0
1 1 0
1 1 0
1 1 0
1 1 0
1 1 0
1 1 0
1 1 0
1 1 0
1 1 0
1 1 0
1 1 0
1 1 0
1 1 0
1 1 0
1 1 0
1 1 0
0.369421 1 0.422049
0.468284 1 0.379171
0.563882 1 0.341009
0.659739 1 0.303319
0.765301 1 0.261097
0.87808 1 0.215213
0.993988 1 0.16762
1 1 0.121111
1 1 0.0779583
1 1 0.0400244
1 1 0.00799573
1 1 0
1 1 0
1 1 0
1 1 0
1 1 0
1 1 0
1 1 0
1 1 0
1 1 0
1 1 0
1 1 0
1 1 0
1 1 0
1 1 0
1 1 0
1 1 0
1 1 0
1 1 0
1 1 0
1 1 0
1 1 0
1 1 0
0.378592 1 0.432395
0.47747 1 0.389517
0.573068 1 0.35137
0.66894 1 0.313695
0.774517 1 0.271489
0.887312 1 0.225605
1 1 0.178027
1 1 0.131533
1 1 0.0883803
1 1 0.0504768
1 1 0.0184482
1 1 0
1 1 0
1 1 0
1 1 0
1 1 0
1 1 0
1 1 0
1 1 0
1 1 0
1 1 0
1 1 0
1 1 0
1 1 0
1 1 0
1 1 0
1 1 0
1 1 0
1 1 0
1 1 0
1 1 0
1 1 0
1 1 0
0.387778 1 0.442756
0.486671 1 0.399878
0.582284 1 0.361746
0.678172 1 0.324071
0.783749 1 0.28188
0.896559 1 0.236027
1 1 0.188449
1 1 0.14197
1 1 0.0988327
1 1 0.0609445
1 1 0.0289311
1 1 0.00724804
1 1 0
1 1 0
1 1 0
1 1 0
1 1 0
1 1 0
1 1 0
1 1 0
1 1 0
1 1 0
1 1 0
1 1 0
1 1 0
1 1 0
1 1 0
1 1 0
1 1 0
1 1 0
1 1 0
1 1 0
1 1 0
0.396994 1 0.453132
0.495872 1 0.410269
0.591501 1 0.372137
0.687404 1 0.334478
0.792996 1 0.292287
0.905821 1 0.246448
1 1 0.198886
1 1 0.152422
1 1 0.1093
1 1 0.0714122
1 1 0.0394141
1 1 0.017731
1 1 0.004654
1 1 0
1 1 0
1 1 0
1 1 0
1 1 0
1 1 0
1 1 0
1 1 0
1 1 0
1 1 0
1 1 0
1 1 0
1 1 0
1 1 0
1 1 0
1 1 0
1 1 0
1 1 0
1 1 0
1 1 0
0.40621 1 0.463523
0.505104 1 0.420661
0.600748 1 0.382528
0.696651 1 0.344884
0.802258 1 0.302724
0.915099 1 0.256886
1 1 0.209339
1 1 0.16289
1 1 0.119768
