assets/resources/Magic_Lantern_Video.cube
TITLE "Generate by Resolve"
LUT_3D_SIZE 9
0 0 0
0.0304875 0 0
0.548989 0 0
0.916152 0 0
1 0 0
1 0 0
1 0 0
1 0 0
1 0.00270085 0
0 0.0373846 0
0.154711 0.0386816 0
0.699748 0.0527504 0
1 0.107866 0
1 0.18497 0
1 0.248676 0
1 0.302815 0
1 0.348226 0
1 0.384649 0
0 0.505898 0
0.385687 0.513252 0
0.898436 0.503395 0
1 0.520272 0
1 0.565469 0
1 0.602579 0
1 0.624384 0
1 0.632212 0
1 0.63238 0
0.126909 0.856535 0.174929
0.574823 0.845014 0.0630655
1 0.818387 0
1 0.80882 0
1 0.816495 0
1 0.815518 0
1 0.811551 0
1 0.807294 0
1 0.804532 0
0.29839 1 0.343359
0.700725 1 0.188495
1 0.973724 0.00588998
1 0.9449 0
1 0.943404 0
1 0.94107 0
1 0.937972 0
1 0.934722 0
1 0.93138 0
0.341039 1 0.390265
0.737713 1 0.230045
1 1 0.0467231
1 1 0
1 1 0
1 1 0
1 1 0
1 1 0
1 1 0
0.378592 1 0.432395
0.774517 1 0.271489
1 1 0.0883803
1 1 0
1 1 0
1 1 0
1 1 0
1 1 0
1 1 0
0.415457 1 0.473915
0.811536 1 0.313161
1 1 0.130251
1 1 0.0256962
1 1 0
1 1 0
1 1 0
1 1 0
1 1 0
0.452522 1 0.515694
0.848722 1 0.355047
1 1 0.172305
1 1 0.0679179
1 1 0.0335241
1 1 0
1 1 0
1 1 0
1 1 0
0 0 0.0413672
0 0 0
0.471427 0 0
0.841489 0 0
1 0 0
1 0 0
1 0 0
1 0 0
1 0.0332647 0.0148013
0 0.0578775 0.170916
0.0846418 0.0626841 0.0798352
0.632486 0.0788281 0
1 0.13576 0
1 0.211002 0.0552071
1 0.270893 0.098024
1 0.321843 0.129198
1 0.363745 0.148623
1 0.396735 0.156527
0 0.530449 0.408209
0.314107 0.536141 0.318273
0.822766 0.523247 0.191531
1 0.538231 0.140948
1 0.581598 0.162646
1 0.615213 0.172
1 0.631647 0.159213
1 0.6365 0.131472
1 0.634928 0.0953536
0.0486305 0.874449 0.616098
0.493233 0.860487 0.501106
0.975021 0.82768 0.34902
1 0.813199 0.260914
1 0.818967 0.234745
1 0.816678 0.198352
1 0.812375 0.159152
1 0.808667 0.1205
1 0.805783 0.0827192
0.204593 1 0.769894
0.604242 1 0.612497
1 0.976364 0.427604
1 0.946929 0.320455
1 0.946456 0.286336
1 0.943496 0.249104
1 0.940414 0.211444
1 0.937179 0.173404
1 0.933852 0.135058
0.244083 1 0.813809
0.640406 1 0.653284
1 1 0.468742
1 1 0.363012
1 1 0.328283
1 1 0.291325
1 1 0.25388
1 1 0.216037
1 1 0.177874
0.281697 1 0.856001
0.677272 1 0.694774
1 1 0.51046
1 1 0.404959
1 1 0.370443
1 1 0.333654
1 1 0.296391
1 1 0.258717
1 1 0.220722
0.318608 1 0.897581
0.714336 1 0.736492
1 1 0.552377
1 1 0.447059
1 1 0.412741
1 1 0.37612
1 1 0.338994
1 1 0.301472
1 1 0.263615
0.355734 1 0.939391
0.751583 1 0.778424
1 1 0.594476
1 1 0.489326
1 1 0.455177
1 1 0.418692
1 1 0.381704
1 1 0.34432
1 1 0.306584
0 0 0.541695
0 0 0.439246
0.384558 0 0.321401
0.76109 0 0.293507
1 0 0.338231
1 0 0.37998
1 0 0.424765
1 0 0.471214
1 0.0622568 0.526558
0 0.083238 0.678035
0.00660716 0.0910353 0.590784
0.558679 0.110307 0.505013
0.965667 0.165667 0.505837
1 0.234775 0.560327
1 0.291005 0.598474
1 0.338415 0.625132
1 0.376898 0.640223
1 0.40647 0.643778
0 0.553765 0.912749
0.2262 0.557183 0.819913
0.729946 0.540642 0.688533
1 0.55523 0.637446
1 0.597253 0.657435
1 0.625742 0.660258
1 0.637766 0.641855
1 0.640162 0.610971
1 0.637385 0.573327
0 0.892363 1
0.396811 0.875212 0.99472
0.870298 0.836271 0.834806
1 0.817685 0.741482
1 0.821866 0.713268
1 0.818723 0.675807
1 0.814435 0.636622
1 0.811627 0.599115
1 0.808103 0.560525
0.09691 1 1
0.494133 1 1
0.939345 0.979629 0.906615
1 0.949401 0.798444
1 0.948608 0.763912
1 0.945708 0.726757
1 0.942641 0.689128
1 0.939437 0.651118
1 0.93611 0.612787
0.134447 1 1
0.530114 1 1
0.976455 1 0.948287
1 1 0.841215
1 1 0.805997
1 1 0.769055
1 1 0.731624
1 1 0.693797
1 1 0.655665
0.171923 1 1
0.567056 1 1
1 1 0.990097
1 1 0.883223
1 1 0.848219
1 1 0.811444
1 1 0.774197
1 1 0.736538
1 1 0.698558
0.208911 1 1
0.604196 1 1
1 1 1
1 1 0.925399
1 1 0.890562
1 1 0.853956
1 1 0.816861
1 1 0.779355
1 1 0.741512
0.246082 1 1
0.641505 1 1
1 1 1
1 1 0.967727
1 1 0.933043
1 1 0.896574
1 1 0.859617
1 1 0.822232
1 1 0.784512
0 0 0.871427
0 0 0.769436
0.345235 0 0.653483
0.725246 0 0.628885
0.970535 0 0.675959
1 0 0.719234
1 0 0.762371
1 0.0218204 0.809064
1 0.088014 0.859266
0 0.112566 1
0 0.124269 0.932982
0.531838 0.144839 0.848875
0.933852 0.196506 0.845014
1 0.259464 0.891661
1 0.312596 0.925872
1 0.356939 0.948623
1 0.392905 0.960494
1 0.417517 0.957732
0 0.57911 1
0.18352 0.579965 1
0.683833 0.560891 1
1 0.574975 0.962478
1 0.615122 0.980072
1 0.637568 0.975204
1 0.645853 0.952026
1 0.646174 0.918532
1 0.642466 0.879683
0 0.912581 1
0.345739 0.891783 1
0.810605 0.846464 1
1 0.82446 1
1 0.827039 1
1 0.823285 0.981506
1 0.819257 0.942657
1 0.816648 0.905409
1 0.813123 0.866804
0.0334478 1 1
0.428794 1 1
0.872679 0.984665 1
1 0.954086 1
1 0.952667 1
1 0.949783 1
1 0.946731 0.994232
1 0.943542 0.956237
1 0.94023 0.917922
0.0704662 1 1
0.464988 1 1
0.910399 1 1
1 1 1
1 1 1
1 1 1
1 1 1
1 1 0.999008
1 1 0.960876
0.10724 1 1
0.502022 1 1
0.947677 1 1
1 1 1
1 1 1
1 1 1
1 1 1
1 1 1
1 1 1
0.144305 1 1
0.539223 1 1
0.985092 1 1
1 1 1
1 1 1
1 1 1
1 1 1
1 1 1
1 1 1
0.181567 1 1
0.576593 1 1
1 1 1
1 1 1
1 1 1
1 1 1
1 1 1
1 1 1
1 1 1
0 0 1
0 0 0.942596
0.346395 0 0.832212
0.729076 0 0.810132
0.973404 0 0.856291
1 0 0.898802
1 0 0.941848
1 0.0526436 0.992599
1 0.115648 1
0 0.145312 1
0 0.159823 1
0.545403 0.181064 1
0.939681 0.227008 1
1 0.285664 1
1 0.335973 1
1 0.377417 1
1 0.410529 1
1 0.429892 1
0 0.606119 1
0.180941 0.604242 1
0.679377 0.58378 1
1 0.596872 1
1 0.632959 1
1 0.649592 1
1 0.654429 1
1 0.65304 1
1 0.648692 1
0 0.933455 1
0.331304 0.907271 1
0.790509 0.857755 1
1 0.833188 1
1 0.834287 1
1 0.830259 1
1 0.826795 1
1 0.824079 1
1 0.820569 1
0.00723278 1 1
0.402045 1 1
0.846464 0.991424 1
1 0.96141 1
1 0.95906 1
1 0.956191 1
1 0.953155 1
1 0.949981 1
1 0.9467 1
0.0435645 1 1
0.438743 1 1
0.884657 1 1
1 1 1
1 1 1
1 1 1
1 1 1
1 1 1
1 1 1
0.0804913 1 1
0.475868 1 1
0.921996 1 1
1 1 1
1 1 1
1 1 1
1 1 1
1 1 1
1 1 1
0.117617 1 1
0.513146 1 1
0.959487 1 1
1 1 1
1 1 1
1 1 1
1 1 1
1 1 1
1 1 1
0.154925 1 1
0.550591 1 1
0.997101 1 1
1 1 1
1 1 1
1 1 1
1 1 1
1 1 1
1 1 1
0 0 1
0 0 1
0.344366 0 1
0.73048 0 0.988785
0.974807 0 1
1 0 1
1 0.0140383 1
1 0.0829786 1
1 0.142107 1
0 0.175906 1
0.000915541 0.193545 1
0.55552 0.214694 1
0.942748 0.255406 1
1 0.311101 1
1 0.358328 1
1 0.396979 1
1 0.426596 1
1 0.440803 1
0 0.632517 1
0.177676 0.627955 1
0.673915 0.605875 1
1 0.617243 1
1 0.647532 1
1 0.659556 1
1 0.661997 1
1 0.659266 1
1 0.654582 1
0 0.9523 1
0.313252 0.920043 1
0.76733 0.866728 1
1 0.840146 1
1 0.84036 1
1 0.836332 1
1 0.833783 1
1 0.830396 1
1 0.826917 1
0 1 1
0.374868 1 1
0.819684 0.997726 1
1 0.967727 1
1 0.965377 1
1 0.962539 1
1 0.959518 1
1 0.956359 1
1 0.953094 1
0.0168002 1 1
0.412009 1 1
0.857939 1 1
1 1 1
1 1 1
1 1 1
1 1 1
1 1 1
1 1 1
0.0538033 1 1
0.449195 1 1
0.895354 1 1
1 1 1
1 1 1
1 1 1
1 1 1
1 1 1
1 1 1
0.0910048 1 1
0.486549 1 1
0.932906 1 1
1 1 1
1 1 1
1 1 1
1 1 1
1 1 1
1 1 1
0.128374 1 1
0.524041 1 1
0.970581 1 1
1 1 1
1 1 1
1 1 1
1 1 1
1 1 1
1 1 1
0 0 1
0 0 1
0.343557 0 1
0.732174 0 1
0.976867 0 1
1 0 1
1 0.0455787 1
1 0.111772 1
1 0.167391 1
0 0.207584 1
0.0117189 0.227878 1
0.563455 0.246906 1
0.943694 0.282445 1
1 0.335439 1
1 0.379843 1
1 0.415656 1
1 0.440314 1
1 0.450401 1
0 0.657847 1
0.17293 0.650782 1
0.667689 0.627588 1
1 0.636179 1
1 0.660212 1
1 0.668437 1
1 0.668833 1
1 0.665263 1
1 0.660563 1
0 0.969284 1
0.292988 0.931365 1
0.742702 0.874815 1
1 0.846586 1
1 0.84622 1
1 0.842466 1
1 0.84004 1
1 0.836683 1
1 0.833234 1
0 1 1
0.34725 1 1
0.792813 1 1
1 0.974014 1
1 0.971695 1
1 0.968856 1
1 0.96585 1
1 0.962722 1
1 0.959472 1
0 1 1
0.38497 1 1
0.83093 1 1
1 1 1
1 1 1
1 1 1
1 1 1
1 1 1
1 1 1
0.0268254 1 1
0.422248 1 1
0.868421 1 1
1 1 1
1 1 1
1 1 1
1 1 1
1 1 1
1 1 1
0.0640879 1 1
0.459663 1 1
0.906035 1 1
1 1 1
1 1 1
1 1 1
1 1 1
1 1 1
1 1 1
0.101518 1 1
0.497215 1 1
0.943755 1 1
1 1 1
1 1 1
1 1 1
1 1 1
1 1 1
1 1 1
0 0 1
0 0 1
0.343206 0 1
0.73489 0 1
0.978454 0 1
1 0.00939956 1
1 0.0762798 1
1 0.139269 1
1 0.191012 1
0 0.239277 1
0.0218967 0.261921 1
0.569619 0.277958 1
0.943267 0.308629 1
1 0.358724 1
1 0.400229 1
1 0.433341 1
1 0.452415 1
1 0.459068 1
0 0.682338 1
0.167193 0.673014 1
0.659937 0.648341 1
0.999298 0.65362 1
1 0.671458 1
1 0.676539 1
1 0.675288 1
1 0.671077 1
1 0.666636 1
0 0.983825 1
0.270604 0.941283 1
0.716854 0.88217 1
1 0.852674 1
1 0.852018 1
1 0.848859 1
1 0.846296 1
1 0.842969 1
1 0.839521 1
0 1 1
0.319524 1 1
0.766278 1 1
1 0.980301 1
1 0.977996 1
1 0.975174 1
1 0.972198 1
1 0.96907 1
1 0.965835 1
0 1 1
0.357702 1 1
0.803693 1 1
1 1 1
1 1 1
1 1 1
1 1 1
1 1 1
1 1 1
0 1 1
0.395056 1 1
0.84126 1 1
1 1 1
1 1 1
1 1 1
1 1 1
1 1 1
1 1 1
0.0369421 1 1
0.432532 1 1
0.87892 1 1
1 1 1
1 1 1
1 1 1
1 1 1
1 1 1
1 1 1
0.0744335 1 1
0.470146 1 1
0.916701 1 1
1 1 1
1 1 1
1 1 1
1 1 1
1 1 1
1 1 1
0 0 1
0 0 1
0.344045 0 1
0.737453 0 1
0.979995 0 1
1 0.037171 1
1 0.106096 1
1 0.16556 1
1 0.213352 1
0 0.271443 1
0.0316777 0.295796 1
0.573663 0.307591 1
0.941299 0.333806 1
1 0.380987 1
1 0.419699 1
1 0.449256 1
1 0.46334 1
1 0.467048 1
0 0.705867 1
0.160235 0.694514 1
0.650782 0.668193 1
0.982986 0.668177 1
1 0.681453 1
1 0.683894 1
1 0.681376 1
1 0.676844 1
1 0.672984 1
0 0.995789 1
0.246677 0.95021 1
0.690074 0.888975 1
0.981262 0.858564 1
1 0.857954 1
1 0.855711 1
1 0.852552 1
1 0.849241 1
1 0.845823 1
0 1 1
0.292012 1 1
0.738705 1 1
1 0.986557 1
1 0.984283 1
1 0.981491 1
1 0.978515 1
1 0.975402 1
1 0.972183 1
0 1 1
0.330236 1 1
0.776242 1 1
1 1 1
1 1 1
1 1 1
1 1 1
1 1 1
1 1 1
0 1 1
0.367651 1 1
0.813886 1 1
1 1 1
1 1 1
1 1 1
1 1 1
1 1 1
1 1 1
0.00959792 1 1
0.405203 1 1
0.851606 1 1
1 1 1
1 1 1
1 1 1
1 1 1
1 1 1
1 1 1
0.0471351 1 1
0.442863 1 1
0.889433 1 1
1 1 1
1 1 1
1 1 1
1 1 1
1 1 1
1 1 1
