assets/resources/Magic_Lantern_Video.cube
TITLE "Generate by Resolve"
LUT_3D_SIZE 5
0 0 0
0.548989 0 0
1 0 0
1 0 0
1 0.00270085 0
0 0.505898 0
0.898436 0.503395 0
1 0.565469 0
1 0.624384 0
1 0.63238 0
0.29839 1 0.343359
1 0.973724 0.00588998
1 0.943404 0
1 0.937972 0
1 0.93138 0
0.378592 1 0.432395
1 1 0.0883803
1 1 0
1 1 0
1 1 0
0.452522 1 0.515694
1 1 0.172305
1 1 0.0335241
1 1 0
1 1 0
0 0 0.541695
0.384558 0 0.321401
1 0 0.338231
1 0 0.424765
1 0.0622568 0.526558
0 0.553765 0.912749
0.729946 0.540642 0.688533
1 0.597253 0.657435
1 0.637766 0.641855
1 0.637385 0.573327
0.09691 1 1
0.939345 0.979629 0.906615
1 0.948608 0.763912
1 0.942641 0.689128
1 0.93611 0.612787
0.171923 1 1
1 1 0.990097
1 1 0.848219
1 1 0.774197
1 1 0.698558
0.246082 1 1
1 1 1
1 1 0.933043
1 1 0.859617
1 1 0.784512
0 0 1
0.346395 0 0.832212
0.973404 0 0.856291
1 0 0.941848
1 0.115648 1
0 0.606119 1
0.679377 0.58378 1
1 0.632959 1
1 0.654429 1
1 0.648692 1
0.00723278 1 1
0.846464 0.991424 1
1 0.95906 1
1 0.953155 1
1 0.9467 1
0.0804913 1 1
0.921996 1 1
1 1 1
1 1 1
1 1 1
0.154925 1 1
0.997101 1 1
1 1 1
1 1 1
1 1 1
0 0 1
0.343557 0 1
0.976867 0 1
1 0.0455787 1
1 0.167391 1
0 0.657847 1
0.667689 0.627588 1
1 0.660212 1
1 0.668833 1
1 0.660563 1
0 1 1
0.792813 1 1
1 0.971695 1
1 0.96585 1
1 0.959472 1
0.0268254 1 1
0.868421 1 1
1 1 1
1 1 1
1 1 1
0.101518 1 1
0.943755 1 1
1 1 1
1 1 1
1 1 1
0 0 1
0.344045 0 1
0.979995 0 1
1 0.106096 1
1 0.213352 1
0 0.705867 1
0.650782 0.668193 1
1 0.681453 1
1 0.681376 1
1 0.672984 1
0 1 1
0.738705 1 1
1 0.984283 1
1 0.978515 1
1 0.972183 1
0 1 1
0.813886 1 1
1 1 1
1 1 1
1 1 1
0.0471351 1 1
0.889433 1 1
1 1 1
1 1 1
1 1 1
